img/source-icon/Icon-Mac.svg

<svg width="72" height="72" viewBox="0 0 72 72" fill="none" xmlns="http://www.w3.org/2000/svg">
<path d="M55.489 48.1413C55.6897 47.3646 55.4884 47.0905 55.1516 46.9857C53.3784 45.8917 52.1962 44.663 50.9435 42.8458C49.9348 40.7353 49.3954 40.0775 49.468 37.1029C49.4002 35.6693 49.5779 34.2358 50.1847 32.8022C50.8995 31.3313 51.5532 30.0933 52.8998 29.2357L54.1901 28.0888C54.5018 27.8537 54.5014 27.3865 54.3421 27.068C53.2174 25.9055 52.3085 24.7123 50.2861 23.6781C49.4668 23.2037 48.2302 22.8366 46.6008 22.7673C45.4505 22.7678 44.3345 22.734 42.9242 22.9946C41.7942 23.1786 40.6136 23.562 39.4836 24.1415L37.856 24.9176C36.8237 25.1704 35.8865 25.0425 34.9888 24.7569L31.9783 23.4841C30.9306 23.0982 29.7041 22.8911 28.251 22.9106C26.8166 22.9063 25.395 22.9665 24.0937 23.6274C23.062 24.1249 22.1235 24.7155 21.2265 25.3477C20.1634 26.3394 19.1544 27.3852 18.3594 28.6449C17.747 29.4359 17.3132 30.7121 16.8331 31.9001C16.3948 33.0892 16.1941 33.9693 16.015 35.0452C15.7011 37.1255 15.7386 38.3887 15.8122 39.97C15.967 42.6771 16.3544 43.662 16.6391 45.2742C16.9818 46.6434 17.4544 47.753 17.9293 48.858C18.4118 50.1937 19.1946 51.3792 19.9363 52.5853C20.5889 53.8382 21.6089 55.2135 22.6601 56.5993C23.5686 57.603 23.9897 58.3631 25.7213 59.601C26.8826 60.3264 27.0541 60.4676 27.6776 60.7566C28.2515 60.8994 28.8451 61.0227 29.6846 60.8999C30.2304 60.7843 30.7424 60.7023 31.5483 60.3265C32.1217 60.0876 32.6951 59.8487 33.2685 59.6097C33.9097 59.323 34.5381 59.0363 35.7056 58.7496C36.4702 58.6493 37.2348 58.5728 37.9993 58.6062C38.48 58.5984 39.28 58.7821 40.4364 59.1797C41.1554 59.42 41.5494 59.4438 43.0169 60.1832C43.6395 60.3854 44.0365 60.7381 45.0239 60.6972C45.9726 60.5667 46.8689 60.2316 47.5536 59.8371C48.31 59.2834 49.2016 58.8651 49.7127 58.0661C50.3299 57.4906 50.6925 57.0424 51.0449 56.5993L52.7652 54.0189C53.3166 53.3623 53.8156 52.6011 54.232 51.6745C54.7345 50.5802 55.1198 49.3688 55.489 48.1413Z" fill="#52525A"/>
<path d="M35.6299 22.0758C35.645 22.6488 36.0057 22.4777 36.2077 22.5522C36.9677 22.6384 37.3405 22.4341 37.8563 22.3372C38.854 22.0512 39.2388 21.8418 39.7199 21.6204C40.2695 21.2935 40.819 21.0577 41.3685 20.5452C41.8869 20.1685 42.2158 19.8468 42.6588 19.3267C43.2449 18.7244 43.4412 18.4399 43.8773 17.8215C44.3624 17.1142 44.5941 16.6436 44.9525 15.8862C45.1928 15.2776 45.4827 14.6938 45.5976 14.0225C45.7245 13.417 45.8852 12.8284 45.8843 12.1589C45.9246 11.8319 45.8325 11.6373 45.7409 11.4421C45.3788 11.2285 45.1923 11.2355 44.7707 11.2655C44.2772 11.2676 43.6455 11.3435 42.9455 11.6572C42.1746 12.0113 41.4371 12.3878 40.8668 12.8757C40.2575 13.258 39.8444 13.6403 39.4332 14.0225C38.9338 14.4789 38.5053 15.006 38.0713 15.5278C37.5774 16.1171 37.192 16.6287 36.9664 17.151C36.662 17.7329 36.4504 18.3148 36.2077 18.8966C35.9499 19.5176 35.7525 20.1687 35.6299 20.8573C35.5592 21.287 35.5775 21.5857 35.6299 22.0758Z" fill="#52525A"/>
<path d="M35.6299 22.0758C35.645 22.6488 36.0057 22.4777 36.2077 22.5522C36.9677 22.6384 37.3405 22.4341 37.8563 22.3372C38.854 22.0512 39.2388 21.8418 39.7199 21.6204C40.2695 21.2935 40.819 21.0577 41.3685 20.5452C41.8869 20.1685 42.2158 19.8468 42.6588 19.3267C43.2449 18.7244 43.4412 18.4399 43.8773 17.8215C44.3624 17.1142 44.5941 16.6436 44.9525 15.8862C45.1928 15.2776 45.4827 14.6938 45.5976 14.0225C45.7245 13.417 45.8852 12.8284 45.8843 12.1589C45.9246 11.8319 45.8325 11.6373 45.7409 11.4421C45.3788 11.2285 45.1923 11.2355 44.7707 11.2655C44.2772 11.2676 43.6455 11.3435 42.9455 11.6572C42.1746 12.0113 41.4371 12.3878 40.8668 12.8757C40.2575 13.258 39.8444 13.6403 39.4332 14.0225C38.9338 14.4789 38.5053 15.006 38.0713 15.5278C37.5774 16.1171 37.192 16.6287 36.9664 17.151C36.662 17.7329 36.4504 18.3148 36.2077 18.8966C35.9499 19.5176 35.7525 20.1687 35.6299 20.8573C35.5592 21.287 35.5775 21.5857 35.6299 22.0758Z" fill="#52525A"/>
<path d="M55.489 48.1413C55.6897 47.3646 55.4884 47.0905 55.1516 46.9857C53.3784 45.8917 52.1962 44.663 50.9435 42.8458C49.9348 40.7353 49.3954 40.0775 49.468 37.1029C49.4002 35.6693 49.5779 34.2358 50.1847 32.8022C50.8995 31.3313 51.5532 30.0933 52.8998 29.2357L54.1901 28.0888C54.5018 27.8537 54.5014 27.3865 54.3421 27.068C53.2174 25.9055 52.3085 24.7123 50.2861 23.6781C49.4668 23.2037 48.2302 22.8366 46.6008 22.7673C45.4505 22.7678 44.3345 22.734 42.9242 22.9946C41.7942 23.1786 40.6136 23.562 39.4836 24.1415L37.856 24.9176C36.8237 25.1704 35.8865 25.0425 34.9888 24.7569L31.9783 23.4841C30.9306 23.0982 29.7041 22.8911 28.251 22.9106C26.8166 22.9063 25.395 22.9665 24.0937 23.6274C23.062 24.1249 22.1235 24.7155 21.2265 25.3477C20.1634 26.3394 19.1544 27.3852 18.3594 28.6449C17.747 29.4359 17.3132 30.7121 16.8331 31.9001C16.3948 33.0892 16.1941 33.9693 16.015 35.0452C15.7011 37.1255 15.7386 38.3887 15.8122 39.97C15.967 42.6771 16.3544 43.662 16.6391 45.2742C16.9818 46.6434 17.4544 47.753 17.9293 48.858C18.4118 50.1937 19.1946 51.3792 19.9363 52.5853C20.5889 53.8382 21.6089 55.2135 22.6601 56.5993C23.5686 57.603 23.9897 58.3631 25.7213 59.601C26.8826 60.3264 27.0541 60.4676 27.6776 60.7566C28.2515 60.8994 28.8451 61.0227 29.6846 60.8999C30.2304 60.7843 30.7424 60.7023 31.5483 60.3265C32.1217 60.0876 32.6951 59.8487 33.2685 59.6097C33.9097 59.323 34.5381 59.0363 35.7056 58.7496C36.4702 58.6493 37.2348 58.5728 37.9993 58.6062C38.48 58.5984 39.28 58.7821 40.4364 59.1797C41.1554 59.42 41.5494 59.4438 43.0169 60.1832C43.6395 60.3854 44.0365 60.7381 45.0239 60.6972C45.9726 60.5667 46.8689 60.2316 47.5536 59.8371C48.31 59.2834 49.2016 58.8651 49.7127 58.0661C50.3299 57.4906 50.6925 57.0424 51.0449 56.5993L52.7652 54.0189C53.3166 53.3623 53.8156 52.6011 54.232 51.6745C54.7345 50.5802 55.1198 49.3688 55.489 48.1413Z" fill="#52525A"/>
<path d="M35.6299 22.0758C35.645 22.6488 36.0057 22.4777 36.2077 22.5522C36.9677 22.6384 37.3405 22.4341 37.8563 22.3372C38.854 22.0512 39.2388 21.8418 39.7199 21.6204C40.2695 21.2935 40.819 21.0577 41.3685 20.5452C41.8869 20.1685 42.2158 19.8468 42.6588 19.3267C43.2449 18.7244 43.4412 18.4399 43.8773 17.8215C44.3624 17.1142 44.5941 16.6436 44.9525 15.8862C45.1928 15.2776 45.4827 14.6938 45.5976 14.0225C45.7245 13.417 45.8852 12.8284 45.8843 12.1589C45.9246 11.8319 45.8325 11.6373 45.7409 11.4421C45.3788 11.2285 45.1923 11.2355 44.7707 11.2655C44.2772 11.2676 43.6455 11.3435 42.9455 11.6572C42.1746 12.0113 41.4371 12.3878 40.8668 12.8757C40.2575 13.258 39.8444 13.6403 39.4332 14.0225C38.9338 14.4789 38.5053 15.006 38.0713 15.5278C37.5774 16.1171 37.192 16.6287 36.9664 17.151C36.662 17.7329 36.4504 18.3148 36.2077 18.8966C35.9499 19.5176 35.7525 20.1687 35.6299 20.8573C35.5592 21.287 35.5775 21.5857 35.6299 22.0758Z" fill="#52525A"/>
</svg>

<svg width="72" height="72" fill="none" xmlns="http://www.w3.org/2000/svg"><path d="M55.489 48.141c.2-.776 0-1.05-.337-1.155-1.774-1.094-2.956-2.323-4.209-4.14-1.008-2.11-1.548-2.768-1.475-5.743-.068-1.434.11-2.867.717-4.3.715-1.472 1.368-2.71 2.715-3.567l1.29-1.147c.312-.235.311-.702.152-1.021-1.125-1.163-2.033-2.356-4.056-3.39-.82-.474-2.056-.841-3.685-.91-1.15 0-2.267-.034-3.677.227-1.13.184-2.31.567-3.44 1.146l-1.628.777c-1.032.252-1.97.125-2.867-.161l-3.01-1.273c-1.048-.386-2.275-.593-3.728-.573-1.434-.005-2.856.055-4.157.716-1.032.498-1.97 1.088-2.867 1.72-1.064.992-2.073 2.038-2.868 3.298-.612.79-1.046 2.067-1.526 3.255-.438 1.19-.639 2.07-.818 3.145-.314 2.08-.276 3.344-.203 4.925.155 2.707.542 3.692.827 5.304.343 1.37.815 2.479 1.29 3.584.483 1.336 1.266 2.521 2.007 3.727.653 1.253 1.673 2.629 2.724 4.014.909 1.004 1.33 1.764 3.061 3.002 1.162.725 1.333.867 1.957 1.156.573.142 1.167.266 2.007.143.545-.116 1.057-.198 1.863-.573l1.72-.717c.642-.287 1.27-.574 2.438-.86.764-.1 1.529-.177 2.293-.144.481-.008 1.281.176 2.437.574.72.24 1.113.264 2.58 1.003.623.202 1.02.555 2.008.514a7.153 7.153 0 0 0 2.53-.86c.756-.554 1.648-.972 2.159-1.77.617-.576.98-1.025 1.332-1.468l1.72-2.58a9.925 9.925 0 0 0 1.467-2.344c.502-1.095.888-2.306 1.257-3.534zM35.63 22.076c.015.573.376.402.578.476.76.086 1.133-.118 1.648-.215.998-.286 1.383-.495 1.864-.717.55-.326 1.099-.562 1.648-1.075.519-.377.848-.698 1.29-1.218.587-.603.783-.887 1.22-1.506.484-.707.716-1.177 1.075-1.935.24-.608.53-1.192.645-1.863.127-.606.287-1.195.286-1.864.04-.327-.051-.522-.143-.717-.362-.213-.549-.207-.97-.177a4.444 4.444 0 0 0-1.825.392c-.771.354-1.509.73-2.08 1.219-.608.382-1.022.764-1.433 1.147-.5.456-.928.983-1.362 1.505-.494.59-.879 1.1-1.105 1.623-.304.582-.516 1.164-.758 1.746a9.387 9.387 0 0 0-.578 1.96c-.07.43-.053.729 0 1.219z" fill="#52525A"/><path d="M35.63 22.076c.015.573.376.402.578.476.76.086 1.133-.118 1.648-.215.998-.286 1.383-.495 1.864-.717.55-.326 1.099-.562 1.648-1.075.519-.377.848-.698 1.29-1.218.587-.603.783-.887 1.22-1.506.484-.707.716-1.177 1.075-1.935.24-.608.53-1.192.645-1.863.127-.606.287-1.195.286-1.864.04-.327-.051-.522-.143-.717-.362-.213-.549-.207-.97-.177a4.444 4.444 0 0 0-1.825.392c-.771.354-1.509.73-2.08 1.219-.608.382-1.022.764-1.433 1.147-.5.456-.928.983-1.362 1.505-.494.59-.879 1.1-1.105 1.623-.304.582-.516 1.164-.758 1.746a9.387 9.387 0 0 0-.578 1.96c-.07.43-.053.729 0 1.219zM55.489 48.141c.2-.776 0-1.05-.337-1.155-1.774-1.094-2.956-2.323-4.209-4.14-1.008-2.11-1.548-2.768-1.475-5.743-.068-1.434.11-2.867.717-4.3.715-1.472 1.368-2.71 2.715-3.567l1.29-1.147c.312-.235.311-.702.152-1.021-1.125-1.163-2.033-2.356-4.056-3.39-.82-.474-2.056-.841-3.685-.91-1.15 0-2.267-.034-3.677.227-1.13.184-2.31.567-3.44 1.146l-1.628.777c-1.032.252-1.97.125-2.867-.161l-3.01-1.273c-1.048-.386-2.275-.593-3.728-.573-1.434-.005-2.856.055-4.157.716-1.032.498-1.97 1.088-2.867 1.72-1.064.992-2.073 2.038-2.868 3.298-.612.79-1.046 2.067-1.526 3.255-.438 1.19-.639 2.07-.818 3.145-.314 2.08-.276 3.344-.203 4.925.155 2.707.542 3.692.827 5.304.343 1.37.815 2.479 1.29 3.584.483 1.336 1.266 2.521 2.007 3.727.653 1.253 1.673 2.629 2.724 4.014.909 1.004 1.33 1.764 3.061 3.002 1.162.725 1.333.867 1.957 1.156.573.142 1.167.266 2.007.143.545-.116 1.057-.198 1.863-.573l1.72-.717c.642-.287 1.27-.574 2.438-.86.764-.1 1.529-.177 2.293-.144.481-.008 1.281.176 2.437.574.72.24 1.113.264 2.58 1.003.623.202 1.02.555 2.008.514a7.153 7.153 0 0 0 2.53-.86c.756-.554 1.648-.972 2.159-1.77.617-.576.98-1.025 1.332-1.468l1.72-2.58a9.925 9.925 0 0 0 1.467-2.344c.502-1.095.888-2.306 1.257-3.534z" fill="#52525A"/><path d="M35.63 22.076c.015.573.376.402.578.476.76.086 1.133-.118 1.648-.215.998-.286 1.383-.495 1.864-.717.55-.326 1.099-.562 1.648-1.075.519-.377.848-.698 1.29-1.218.587-.603.783-.887 1.22-1.506.484-.707.716-1.177 1.075-1.935.24-.608.53-1.192.645-1.863.127-.606.287-1.195.286-1.864.04-.327-.051-.522-.143-.717-.362-.213-.549-.207-.97-.177a4.444 4.444 0 0 0-1.825.392c-.771.354-1.509.73-2.08 1.219-.608.382-1.022.764-1.433 1.147-.5.456-.928.983-1.362 1.505-.494.59-.879 1.1-1.105 1.623-.304.582-.516 1.164-.758 1.746a9.387 9.387 0 0 0-.578 1.96c-.07.43-.053.729 0 1.219z" fill="#52525A"/></svg>
